src/images/dislike.svg

<svg width="53" height="51" viewBox="0 0 53 51" fill="none" xmlns="http://www.w3.org/2000/svg">
<path d="M25.6943 51C25.1212 51.0001 24.5514 50.9095 24.0044 50.7312C21.6541 49.9663 20.1513 47.8222 20.1745 45.2708C20.1951 42.9385 19.7681 40.9019 18.9064 39.2216C17.8499 37.1608 16.0904 35.5746 13.6755 34.5059C13.441 34.4024 13.2283 34.2519 13.0496 34.0628C12.8709 33.8737 12.9996 34.246 12.9039 34C12.902 34.2654 12.8083 33.754 12.9039 34C13.0496 33.5194 12.8092 34.0467 12.9085 33.8022C13.0078 33.5578 13.1523 33.3362 13.3337 33.15C13.5152 32.9638 13.7301 32.8166 13.9661 32.717C14.2022 32.6173 14.4547 32.567 14.7094 32.5691C14.9641 32.5711 15.2159 32.6254 15.4504 32.7289C21.5 37 22.2952 39.2216 23.4567 46.9482C23.4583 47.2984 23.5667 47.6391 23.7662 47.9209C23.9658 48.2027 24.2462 48.411 24.5669 48.5158C24.8877 48.6206 25.232 48.6163 25.5503 48.5037C25.8685 48.391 27.0187 48.1758 27.2118 47.8892C30.8677 42.2823 29.4253 35.419 29.393 35.3571C29.2298 35.0502 29.1463 34.7041 29.1507 34.3532C29.1552 34.0023 29.2474 33.6587 29.4184 33.3563C29.5893 33.054 29.833 32.8033 30.1254 32.6292C30.4178 32.4551 30.7487 32.3635 31.0855 32.3635L47.5513 32.7289C48.0292 32.7156 50.2971 31.45 50.2971 30.175C50.2971 28.9 50.2971 29.325 50.2971 28.9C50.2971 28.475 49.8767 28.3621 49.0077 28.05C48.1386 27.7379 48.1962 27.6382 47.7182 27.625L46.2548 27.9425C45.7416 27.9425 45.2494 27.7301 44.8865 27.352C44.5236 26.9738 44.3198 26.4609 44.3198 25.9262C44.3198 25.3914 44.5236 24.8785 44.8865 24.5003C45.2494 24.1222 45.7416 23.9098 46.2548 23.9098C46.4955 23.9099 46.734 23.8606 46.9564 23.7647C47.1789 23.6688 47.3811 23.5281 47.5513 23.3507C47.7216 23.1733 47.8566 22.9626 47.9486 22.7308C48.0407 22.4989 48.088 22.2505 48.0878 21.9996C48.0871 21.4932 47.5317 20.3331 47.188 19.975C46.8444 19.6169 45.1508 19.7332 44.6648 19.7324H44.2798C43.7666 19.7324 43.2744 19.52 42.9116 19.1419C42.5487 18.7637 42.3448 18.2508 42.3448 17.716C42.3448 17.1813 42.5487 16.6684 42.9116 16.2902C43.2744 15.9121 43.7666 15.6996 44.2798 15.6996C44.7659 15.6996 45.2322 15.4984 45.576 15.1402C45.9197 14.7819 45.5692 14.5316 45.5692 14.025C45.5692 13.5184 44.883 13.0325 44.5392 12.6743C44.1954 12.316 43.8104 11.8357 43.3243 11.8357H40.6863C40.1731 11.8357 39.6809 11.6233 39.318 11.2452C38.9551 10.867 38.7513 10.3541 38.7513 9.81935C38.7513 9.28457 38.9551 8.77169 39.318 8.39354C39.6809 8.01539 40.1731 7.80295 40.6863 7.80295C41.1724 7.80295 41.6387 7.6017 41.9824 7.24347C42.3262 6.88524 42.5193 6.39937 42.5193 5.89275C42.5193 5.38614 42.3262 4.90027 41.9824 4.54204C41.6387 4.18381 41.1698 2.71647 40.6837 2.71647L28.2098 2.75998C26.4893 2.75756 24.7824 3.07625 23.1698 3.70097L14.4624 7.07104C13.9944 7.20993 13.496 8.42608 13.0618 8.19726C12.6276 7.96844 12.292 7.57754 12.122 7.10245C11.952 6.62736 11.9599 6.10295 12.1443 5.63371C12.3287 5.16447 12.676 4.78485 13.117 4.5705L21.8244 1.20043C23.8678 0.405795 26.0313 -0.000774999 28.2124 1.10904e-06H39.3901C40.3496 0.00183439 41.2932 0.255683 42.1336 0.738085C42.974 1.22049 43.6842 1.91588 44.1985 2.75998C44.7128 3.60409 45.0147 4.56968 45.0761 5.5675C45.1375 6.56532 44.9566 7.56318 44.55 8.46886C45.8875 9.15918 46.9125 10.3677 47.4055 11.8357C47.8986 13.3038 47.8205 14.9146 47.188 16.3234C48.525 17.0139 49.5494 18.2224 50.0422 19.69C50.535 21.1577 50.4569 22.7681 49.8248 24.1766C50.9783 24.7709 51.905 25.7544 52.4543 26.967C53.0036 28.1797 53.1432 29.5503 52.8504 30.8561C52.5576 32.1619 51.8496 33.3261 50.8416 34.1596C49.8335 34.993 48.5845 35.4467 47.2977 35.4469H31.8643C32.7376 38.5535 33.313 43.6267 30.1254 48.5158C29.6411 49.279 28.983 49.9053 28.2098 50.3388C27.4365 50.7723 26.5723 50.9995 25.6943 51Z" fill="#BE2929"/>
<path d="M13.0582 36H1.94183C1.42683 36 0.932913 35.7854 0.568749 35.4034C0.204585 35.0214 0 34.5032 0 33.963V6.037C0 5.49675 0.204585 4.97863 0.568749 4.59662C0.932913 4.21461 1.42683 4 1.94183 4H13.0582C13.5732 4 14.0671 4.21461 14.4313 4.59662C14.7954 4.97863 15 5.49675 15 6.037V33.963C15 34.5032 14.7954 35.0214 14.4313 35.4034C14.0671 35.7854 13.5732 36 13.0582 36ZM2.58797 33.963H12.5085V6.037H2.58409L2.58797 33.963Z" fill="#BE2929"/>
</svg>

<svg width="53" height="51" fill="none" xmlns="http://www.w3.org/2000/svg"><path d="M25.694 51c-.573 0-1.143-.09-1.69-.269-2.35-.765-3.853-2.909-3.83-5.46.021-2.333-.406-4.37-1.268-6.05-1.056-2.06-2.816-3.646-5.23-4.715a1.939 1.939 0 01-.626-.443c-.18-.19-.05.183-.146-.063-.002.265-.096-.246 0 0 .146-.48-.095.047.005-.198.099-.244.243-.466.425-.652.181-.186.396-.333.632-.433a1.87 1.87 0 011.484.012c6.05 4.271 6.845 6.493 8.007 14.22.001.35.11.69.31.972.199.282.48.49.8.595.32.105.665.1.983-.012.319-.113 1.469-.328 1.662-.615 3.656-5.607 2.213-12.47 2.181-12.532a2.085 2.085 0 01.025-2c.171-.303.415-.554.707-.728.293-.174.624-.265.96-.265l16.466.365c.478-.013 2.746-1.279 2.746-2.554V28.9c0-.425-.42-.538-1.29-.85-.868-.312-.81-.412-1.289-.425l-1.463.317a1.896 1.896 0 01-1.369-.59 2.06 2.06 0 01-.566-1.426c0-.535.204-1.047.566-1.426.363-.378.856-.59 1.369-.59.24 0 .479-.05.701-.145.223-.096.425-.237.595-.414.17-.178.306-.388.398-.62.092-.232.139-.48.139-.731 0-.507-.556-1.667-.9-2.025-.344-.358-2.037-.242-2.523-.243h-.385a1.896 1.896 0 01-1.368-.59 2.06 2.06 0 01-.567-1.426c0-.535.204-1.048.567-1.426.362-.378.855-.59 1.368-.59.486 0 .952-.202 1.296-.56.344-.358-.007-.608-.007-1.115s-.686-.992-1.03-1.35c-.344-.359-.729-.84-1.215-.84h-2.638a1.896 1.896 0 01-1.368-.59 2.06 2.06 0 01-.567-1.426c0-.534.204-1.047.567-1.425.363-.379.855-.591 1.368-.591.486 0 .953-.201 1.296-.56.344-.358.537-.844.537-1.35 0-.507-.193-.993-.537-1.351-.343-.358-.812-1.826-1.298-1.826L28.21 2.76a13.89 13.89 0 00-5.04.941l-8.708 3.37c-.468.139-.966 1.355-1.4 1.126a1.99 1.99 0 01-.94-1.095c-.17-.475-.162-1 .022-1.468.185-.47.532-.85.973-1.064l8.707-3.37A17.598 17.598 0 0128.212 0H39.39c.96.002 1.903.256 2.744.738a5.813 5.813 0 012.065 2.022 6.166 6.166 0 01.351 5.709c1.338.69 2.363 1.899 2.856 3.367a6.181 6.181 0 01-.218 4.487c1.337.69 2.361 1.9 2.854 3.367a6.182 6.182 0 01-.217 4.487 5.835 5.835 0 012.63 2.79 6.172 6.172 0 01.395 3.89 5.978 5.978 0 01-2.008 3.303 5.56 5.56 0 01-3.544 1.287H31.864c.874 3.106 1.449 8.18-1.739 13.069a5.404 5.404 0 01-1.915 1.823 5.146 5.146 0 01-2.516.661z" fill="#BE2929"/><path d="M13.058 36H1.942a1.897 1.897 0 01-1.373-.597A2.089 2.089 0 010 33.963V6.037c0-.54.205-1.058.569-1.44A1.897 1.897 0 011.942 4h11.116c.515 0 1.01.215 1.373.597.364.382.569.9.569 1.44v27.926a2.09 2.09 0 01-.569 1.44 1.897 1.897 0 01-1.373.597zm-10.47-2.037h9.92V6.037H2.585l.004 27.926z" fill="#BE2929"/></svg>
